outputs/icons/audio_video/stop_round.svg

<svg xmlns="http://www.w3.org/2000/svg" width="1200" height="1200" fill="none"><g clip-path="url(#a)"><path fill="#000" d="M400 300h400c55 0 100 45 100 100v400c0 55-45 100-100 100H400c-55 0-100-45-100-100V400c0-55 45-100 100-100"/></g><defs><clipPath id="a"><path fill="#fff" d="M0 0h1200v1200H0z"/></clipPath></defs></svg>

<svg width="1200" height="1200" viewBox="0 0 1200 1200" fill="none" xmlns="http://www.w3.org/2000/svg"><g clip-path="url(#clip0_231_5125)"><path d="M400 300H800C855 300 900 345 900 400V800C900 855 855 900 800 900H400C345 900 300 855 300 800V400C300 345 345 300 400 300Z" fill="black"/></g><defs><clipPath id="clip0_231_5125"><path width="24" fill="white" d="M0 0H1200V1200H0V0z"/></clipPath></defs></svg>
